X:1
T:Title
%%score { ( 1 4 5 ) | ( 2 3 6 ) }
L:1/8
M:6/8
K:Bb
V:1 treble nm="Grand Piano"
V:4 treble 
V:5 treble 
V:2 bass 
V:3 bass 
V:6 bass 
V:1
 z3 z2[Q:1/4=100] F | [DB]2 [DB] [DB][B,FA][EG] | [DF]3 [DB]2 [FB] | c2 c cBc | %4
[M:5/8] [Fd]-[Fd]- [Fd]3 |[M:1/8] F |[M:3/4] [DB]2 [DB][DB] [B,FA][EG] | [DF]3 [DB]2 c | d2 Bc dc | %9
[M:5/8] [DB]-[DB]- [DB]3 |[M:1/8] A |[M:3/4] A2 A B2 B | c3 A2 F | B2 B c2 c | %14
[M:5/8] [Fd]-[Fd]- [Fd]3 |[M:1/8] [Fd] |[M:3/4] [Fe]2 [Fd] [Gc]2 [EGB] | c2 z2 z2 | F2 B d2 c | %19
[M:5/8] [B,DB]-[B,DB]- [B,DB]3 |[M:1/8] z |[M:3/4] F4 z2 | B4[K:bass][K:treble] z2 | c4 z2 | %24
 d3 [B,DB]2 F | e2 d c2 B |[M:7/8] d3 c3 F |[M:3/4] [DB]2 [DB][DB] [EA][FB] | [Gc]3 B2 G | %29
 F2 B d2 c | [DB]6 |] %31
V:2
 z3 z2 F, | [B,,F,]2 [B,,F,] .[B,,F,]2 [B,,B,] | [B,,B,]3 [B,,F,]2 [D,B,] | %3
 [F,A,E]2 [F,A,E] [A,E][B,D][F,A,E] |[M:5/8] [B,,B,]-[B,,B,]- [B,,B,]3 |[M:1/8] [F,E] | %6
[M:3/4] z2 z F, z2 | [B,,B,]3 [B,,F,]2 [F,A,E] | [B,F]2 [B,D][K:bass][A,E] [B,F][F,A,E] | %9
[M:5/8] [B,,B,]-[B,,B,]- [B,,B,]3 |[M:1/8] [F,CF] |[M:3/4] [F,CF]2 [F,CF] [F,DF]2 [F,DF] | %12
 [F,A,E]3 [F,CE]2 [F,A,E] | [G,B,D]2 [G,B,D] [F,A,F]2 [F,A,F] |[M:5/8] [B,,B,]-[B,,B,]- [B,,B,]3 | %15
[M:1/8] [B,,B,] |[M:3/4] [C,A,]2 [D,B,] [E,B,]2 E, | z2[K:treble] B _E,2[K:bass] [E,B,E] | %18
 [F,B,D]2 [F,B,D] [F,B,F]2 [F,A,E] |[M:5/8] B,,-B,,- B,,3 |[M:1/8][K:treble] F | %21
[M:3/4] E4[K:bass] z2 | D4[K:treble] z2 | E4[K:bass] z2 | [B,F]3 B,,2 F, | E2 D C2 B, | %26
[M:7/8] D3 C3[K:bass] [F,E] |[M:3/4] [B,,F,]2 [B,,F,][B,,F,] [C,C][D,B,] | %28
 [E,E]3 [E,G,E]2 [E,B,E] | [F,B,D]2 [F,B,D] [F,B,F]2 [F,A,E] | [B,,B,]6 |] %31
V:3
 x6 | x6 | x6 | z3 .F,3 |[M:5/8] x5 |[M:1/8] x |[M:3/4] [B,,F,]2 [B,,F,] B,,2 [B,,B,] | x6 | %8
 z2 z[K:bass] .F,3 |[M:5/8] x5 |[M:1/8] x |[M:3/4] x6 | x6 | x6 |[M:5/8] x5 |[M:1/8] x | %16
[M:3/4] x6 | =E,4[K:treble] z2[K:bass] | x6 |[M:5/8] x5 |[M:1/8][K:treble] x | %21
[M:3/4] z2[K:bass] F, [F,A,]2 E | z2 .B,,2[K:treble] FF | z2[K:bass] .F,2 [B,D][F,A,E] | x6 | x6 | %26
[M:7/8] x6[K:bass] x |[M:3/4] x6 | x6 | x6 | x6 |] %31
V:4
 x6 | x6 | x6 | x6 |[M:5/8] x5 |[M:1/8] x |[M:3/4] x6 | x6 | x6 |[M:5/8] x5 |[M:1/8] x | %11
[M:3/4] x6 | x6 | x6 |[M:5/8] x5 |[M:1/8] x |[M:3/4] x6 | [CG]3 [CFA]2 G | x6 |[M:5/8] x5 | %20
[M:1/8] x |[M:3/4] z2 .A,2 GA | z2[K:bass] .F,2[K:treble] AB | z2 A,A, Bc | x6 | x6 |[M:7/8] x7 | %27
[M:3/4] x6 | x6 | x6 | x6 |] %31
V:5
 x6 | x6 | x6 | x6 |[M:5/8] x5 |[M:1/8] x |[M:3/4] x6 | x6 | x6 |[M:5/8] x5 |[M:1/8] x | %11
[M:3/4] x6 | x6 | x6 |[M:5/8] x5 |[M:1/8] x |[M:3/4] x6 | x6 | x6 |[M:5/8] x5 |[M:1/8] x | %21
[M:3/4] z2 z .E3 | z2[K:bass] z .F,3[K:treble] | x6 | x6 | x6 |[M:7/8] x7 |[M:3/4] x6 | x6 | x6 | %30
 x6 |] %31
V:6
 x6 | x6 | x6 | x6 |[M:5/8] x5 |[M:1/8] x |[M:3/4] x6 | x6 | x3[K:bass] x3 |[M:5/8] x5 |[M:1/8] x | %11
[M:3/4] x6 | x6 | x6 |[M:5/8] x5 |[M:1/8] x |[M:3/4] x6 | x2[K:treble] x3[K:bass] x | x6 | %19
[M:5/8] x5 |[M:1/8][K:treble] x |[M:3/4] x2[K:bass] x4 | z2 z .B,,3[K:treble] | z2[K:bass] z .F,3 | %24
 x6 | x6 |[M:7/8] x6[K:bass] x |[M:3/4] x6 | x6 | x6 | x6 |] %31

